X:1
T:Rock in the Desert
T:John Robson Sweney
T:Rock in the Desert
T:Public Domain
T:Public Domain
T:Public Domain
C:John Robson Sweney
Z:Public Domain
%%score ( 1 2 ) ( 3 4 )
L:1/8
M:4/4
K:Ab
V:1 treble 
V:2 treble 
V:3 bass 
V:4 bass 
V:1
 [CE]2 [CE]>[CE] [CE]2 [A,C][B,D] | [CE]2 [DF]>[DG] [CA]4 | [DF]2 [DF]>[DF] [DF]2 [EG][EA] | %3
w: 1.~Rock in the de- sert, my|shield from the blast|Un- der Thy sha- dow I’m|
w: 2.~Rock in the de- sert, how|love- ly the star,|Guid- ing my foot- steps from|
w: 3.~Rock in the de- sert, how|peace- ful my rest,|Kind- ly pro- tect- ed, no|
w: 4.~Rock in the de- sert, O|Sav- ior di- vine,|Thou art my ref- uge, no|
 [EB]2 [=DB]>[DB] [EB]4 | [Ec]2 [Ec]>[Ec] [Ec]2 [EB][_GA] | [Fd]2 [Fd]>[Fd] [Fd]4 | %6
w: hid- ing at last;|Dear is Thy ref- uge, and|wel- come to me;|
w: wan- d’ring a- far;|Now I am hap- py, Thy|shel- ter I see;|
w: long- er op- pressed;|Long have I thirst- ed for|streams cool and free.|
w: love is like Thine;|Thou my Re- deem- er art|gra- cious to me;|
 [Ee]2 [_Ge]>[Ge] (ed)[=FA][_FB] | [Ec]2 [Ec]>[DB] [CA]2 ||"^Refrain" [EA]2 | D2 D>D C2 (3(GEB) | %10
w: Rock in the de- * sert, my|flies to Thee. *|||
w: Rock in the de- * sert, my|clings to Thee. My|soul|flies to Thee, my soul * *|
w: Rock in the de- * sert, I|them in Thee. *|||
w: Rock in the de- * sert, I|but in Thee. *|||
 C2 C>C C2 [Ec]2 | E2 E>E E2 (3(dBe) | A2 A>A A2 z2 | [Ae]2 [Ae]>[Ae] [Ae] [Ac]3 | %14
w: ||||
w: Thee, My soul flies to|my soul flies to Thee, * *|the de- sert, rock|the de- sert, Rock in|
w: ||||
w: ||||
 [Gd]2 [Gd]>[Gd] [Gd] [GB]3 | [Ec]2 [_Ge]>[Ge] (ed)[=FA][_FB] | [Ec]2 [Ec]>[DB] [CA]2 |] %17
w: |||
w: the de- sert, my soul|flies to Thee. * * * *||
w: |||
w: |||
V:2
 x8 | x8 | x8 | x8 | x8 | x8 | x4 _F2 x2 | x6 || x2 | G6 C2 | A6 x2 | d6 G2 | c6 x2 | x8 | x8 | %15
w: ||||||soul|||||||||
w: ||||||faith|||flies to|Thee,|Rock in|in|||
w: ||||||find|||||||||
w: ||||||live|||||||||
 x4 _F2 x2 | x6 |] %17
w: ||
w: ||
w: ||
w: ||
V:3
 [A,,A,]2 [A,,A,]>[A,,A,] [A,,A,]2 [A,,E,][A,,E,] | [A,,A,]2 [A,,A,]>[A,,A,] [A,,A,]4 | %2
 [D,A,]2 [D,A,]>[D,A,] [D,A,]2 [D,B,][C,A,] | [B,,G,]2 [B,,F,]>[B,,A,] [E,G,]4 | %4
 [A,,A,]2 [A,,A,]>[A,,A,] [A,,A,]2 [B,,G,][C,A,] | [D,A,]2 [D,A,]>[D,A,] [D,A,]4 | %6
 [C,A,]2 [C,A,]>[C,A,] [D,A,]2 [D,A,][D,A,] | [E,A,]2 [E,A,]>[E,G,] [A,,A,]2 || [A,,C]2 | %9
 [E,B,]2 [E,B,]>[E,B,] [E,B,]2 (B,>G,) | [A,,A,]2 [A,,E,]>[A,,E,] [A,,E,]2 A,2 | %11
 [G,B,]2 [G,B,]>[G,B,] [G,B,]2 [E,B,]2 | [A,C]2 [A,E]>[A,E] [A,E]2 z2 | %13
 [A,C]2 [A,C]>[A,C] [A,C] [A,E]3 | [E,E]2 [E,B,]>[E,B,] [E,B,] [E,E]3 | %15
 A,2 [C,A,]>[C,A,] [D,A,]2 [D,A,][D,A,] | [E,A,]2 [E,A,]>[E,G,] [A,,A,]2 |] %17
V:4
 x8 | x8 | x8 | x8 | x8 | x8 | x8 | x6 || x2 | x6 E,2 | x6 A,2 | x8 | x8 | x8 | x8 | A,2 x6 | x6 |] %17

